X:1
T:Title
%%score { ( 1 4 ) | ( 2 3 ) }
L:1/8
M:4/4
K:Db
V:1 treble nm="Grand Piano"
V:4 treble 
V:2 bass 
V:3 bass 
V:1
 z4 z2[Q:1/4=96] [FA]2 | F2 d2 c2 B2 | A2 G2 F3 D | E2 E2 E2 FG | F6 F2 | [CE]2 [CE]2 [DF]2 [DF]2 | %6
 [CE]2 [CE]2 F3 F | E2 d2 c2 B2 | [CA]6 [CA]2 | [CA]3 [CA] ABcd | [Ge]2 [Fd]2 [Gc]2 B2 | %11
 A2 B2 [Gc]2 [Fd]2 | [Ge]6 [GA]2 | z4 z2 B2 | d2 D2 D3 E | F2 [CB]2 [DA]3 [Gc] |[M:3/4] [Fd]6 |] %17
V:2
 z4 z2 [D,D]2 | [D,A,D]2 [F,A,D]2 [F,A,D]2 [G,D]2 | [F,A,D]2 [E,A,C]2 [D,A,D]3 [E,A,] | %3
 [G,B,D]2 [G,B,D]2 [G,A,C]2 [A,C]-[E,A,C] | [D,A,D]6 [D,A,D]2 | [A,,A,]2 [A,,A,]2 [D,A,]2 [D,A,]2 | %6
 [A,,A,]2 [A,,A,]2 [D,A,D]3 [D,A,D] | [E,A,C]2 [E,F,E]2 [E,=G,E]2 [E,G,D]2 | [A,,A,]6 [A,,A,]2 | %9
 [A,,G,]3 [A,,G,] [A,,F,]2 [A,,E,]2 | [C,A,]2 [D,A,]2 [E,A,]2 [G,A,C]2 | %11
 [F,A,D]2 [G,D]2 [E,A,]2 [D,A,]2 | [C,A,]6 [C,A,]2 | [D,A,]2 [D,A,]2 [F,A,D]2 .[G,D]2 | %14
 [F,A,D]2 [F,A,]2 [G,B,]3 [G,B,D] | [A,D]2 [A,,G,]2 [A,,F,]3 [A,,A,] |[M:3/4] [D,A,]6 |] %17
V:3
 x8 | x8 | x8 | z4 z2 .F,2 | x8 | x8 | x8 | x8 | x8 | x8 | x8 | x8 | x8 | x8 | x8 | x8 | %16
[M:3/4] x6 |] %17
V:4
 x8 | x8 | x8 | x8 | x8 | x8 | x8 | x8 | x8 | z4 D2 G2 | x8 | x8 | x8 | [Ff]2 [Fd]2 c2 z E | x8 | %15
 x8 |[M:3/4] x6 |] %17

